front/public/static/landing/logos/gray/evenup.svg

<svg fill="none" height="300" viewBox="0 -29 140 89.3" width="600" xmlns="http://www.w3.org/2000/svg"><g clip-rule="evenodd" fill="#364153" fill-rule="evenodd"><path d="m7.17946 9.82031v13.39079c-4.28171-2.0935-7.17946-6.2016-7.17946-10.9022v-2.44913h7.17946z"/><path d="m16.7185 4.46289v20.07451c-1.1245.2915-2.3355.4581-3.5897.4581-1.2543 0-2.422-.1666-3.58974-.4581v-20.07451z"/><path d="m18.8457 0v23.2108c4.2817-2.1469 7.1795-6.3597 7.1795-11.1801v-12.0307z"/><path d="m32.3076 24.1035v-24.1035h15.2565v3.78885h-11.0507v6.40875h10.0198v3.7083h-10.0198v6.4088h11.0507v3.7888z"/><path d="m59.059 24.2733h-3.8867l-6.6235-16.37096h4.2835l4.3231 11.71056 4.2435-11.71056h4.0854z"/><path d="m77.4471 14.201c-.0807-1.8674-1.37-3.5402-4.069-3.5402-2.4974 0-3.9076 1.8284-4.0284 3.5402zm3.7868 5.174c-.8863 2.8011-3.5051 5.0575-7.4928 5.0575-4.4715 0-8.4599-3.1512-8.4599-8.5587 0-5.0574 3.8675-8.4031 8.0568-8.4031 5.1162 0 8.0969 3.2679 8.0969 8.2864 0 .6225-.0802 1.167-.1208 1.206h-12.0852c.1208 2.4119 2.0548 4.1626 4.5122 4.1626 2.3766 0 3.5852-1.206 4.1492-2.801z"/><path d="m87.5684 24.1043h-4.1075v-16.48059h3.9821v2.20546c1.1313-1.88464 3.185-2.68659 5.0711-2.68659 4.1915 0 6.2034 2.92722 6.2034 6.53612v10.4256h-4.1074v-9.744c0-2.045-.9642-3.649-3.5209-3.649-2.3472 0-3.5626 1.7243-3.5626 3.8896z"/><path d="m102.308 15.955v-15.955h4.015v15.7096c0 3.4365 1.847 5.3593 4.898 5.3593 3.092 0 4.899-1.8819 4.899-5.3593v-15.7096h4.136v15.955c0 5.8911-3.935 9.0413-8.994 9.0413-5.02 0-8.954-3.1502-8.954-9.0413z"/><path d="m131.454 11.5108c-2.629 0-4.561 2.0374-4.561 5.0736 0 3.1161 1.89 5.1535 4.561 5.1535s4.561-2.0374 4.561-5.1535c-.041-3.0362-1.849-5.0736-4.561-5.0736zm-8.505 19.7352v-22.85125h3.863v2.23715c.821-1.39822 2.752-2.59674 5.382-2.59674 4.971 0 7.806 3.71534 7.806 8.54924 0 4.9138-3.081 8.6291-7.929 8.6291-2.424 0-4.274-.9987-5.136-2.277v8.2696z"/></g></svg>

<svg width="600" height="300" viewBox="0 -29 140 89.3" fill="none" xmlns="http://www.w3.org/2000/svg">
<path fill-rule="evenodd" clip-rule="evenodd" d="M7.17946 9.82031V23.2111C2.89775 21.1176 0 17.0095 0 12.3089V9.85977H7.17946V9.82031Z" fill="#364153"/>
<path fill-rule="evenodd" clip-rule="evenodd" d="M16.7185 4.46289V24.5374C15.594 24.8289 14.383 24.9955 13.1288 24.9955C11.8745 24.9955 10.7068 24.8289 9.53906 24.5374V4.46289H16.7185Z" fill="#364153"/>
<path fill-rule="evenodd" clip-rule="evenodd" d="M18.8457 0V23.2108C23.1274 21.0639 26.0252 16.8511 26.0252 12.0307V0H18.8457Z" fill="#364153"/>
<path fill-rule="evenodd" clip-rule="evenodd" d="M32.3076 24.1035V0H47.5641V3.78885H36.5134V10.1976H46.5332V13.9059H36.5134V20.3147H47.5641V24.1035H32.3076Z" fill="#364153"/>
<path fill-rule="evenodd" clip-rule="evenodd" d="M59.059 24.2733H55.1723L48.5488 7.90234H52.8323L57.1554 19.6129L61.3989 7.90234H65.4843L59.059 24.2733Z" fill="#364153"/>
<path fill-rule="evenodd" clip-rule="evenodd" d="M77.4471 14.201C77.3664 12.3336 76.0771 10.6608 73.3781 10.6608C70.8807 10.6608 69.4705 12.4892 69.3497 14.201H77.4471ZM81.2339 19.375C80.3476 22.1761 77.7288 24.4325 73.7411 24.4325C69.2696 24.4325 65.2812 21.2813 65.2812 15.8738C65.2812 10.8164 69.1487 7.4707 73.338 7.4707C78.4542 7.4707 81.4349 10.7386 81.4349 15.7571C81.4349 16.3796 81.3547 16.9241 81.3141 16.9631H69.2289C69.3497 19.375 71.2837 21.1257 73.7411 21.1257C76.1177 21.1257 77.3263 19.9197 77.8903 18.3247L81.2339 19.375Z" fill="#364153"/>
<path fill-rule="evenodd" clip-rule="evenodd" d="M87.5684 24.1043H83.4609V7.62371H87.443V9.82917C88.5743 7.94453 90.628 7.14258 92.5141 7.14258C96.7056 7.14258 98.7175 10.0698 98.7175 13.6787V24.1043H94.6101V14.3603C94.6101 12.3153 93.6459 10.7113 91.0892 10.7113C88.742 10.7113 87.5266 12.4356 87.5266 14.6009L87.5684 24.1043Z" fill="#364153"/>
<path fill-rule="evenodd" clip-rule="evenodd" d="M102.308 15.955V0H106.323V15.7096C106.323 19.1461 108.17 21.0689 111.221 21.0689C114.313 21.0689 116.12 19.187 116.12 15.7096V0H120.256V15.955C120.256 21.8461 116.321 24.9963 111.262 24.9963C106.242 24.9963 102.308 21.8461 102.308 15.955Z" fill="#364153"/>
<path fill-rule="evenodd" clip-rule="evenodd" d="M131.454 11.5108C128.825 11.5108 126.893 13.5482 126.893 16.5844C126.893 19.7005 128.783 21.7379 131.454 21.7379C134.125 21.7379 136.015 19.7005 136.015 16.5844C135.974 13.5482 134.166 11.5108 131.454 11.5108ZM122.949 31.246V8.39475H126.812V10.6319C127.633 9.23368 129.564 8.03516 132.194 8.03516C137.165 8.03516 140 11.7505 140 16.5844C140 21.4982 136.919 25.2135 132.071 25.2135C129.647 25.2135 127.797 24.2148 126.935 22.9365V31.2061L122.949 31.246Z" fill="#364153"/>
</svg>
